X:23
T:New Rigged Ship,The. RH.023
R:Jig
S:Rev.R.Harrison’s MS,c1815,Cumbria
O:England
A:Temple Sowerby,Cumbria
Z:vmp.Simon Wilson. Review PJH, 2008.
M:6/8
L:1/8
Q:3/8=120
K:D
A|d2d d2f|d2d d2f|ecA Aaf|ecA ABc|!
d2d d2f|dcd ecA|Bcd ecA|d3- d2:|!
|:f/g/|a2f a2f|d2d dfa|b2g b2g|e2e efg|!
a2f a2f|d2d ecA|Bcd ecA|d3- d2f/g/|!
agf agf|ded dfa|bag bag|efe efg|!
agf agf|def ecA|Bcd ecA|d3- d2|]

